X:1
T:Title
%%score { 1 | ( 2 3 ) }
L:1/8
Q:1/4=90
M:6/8
K:F
V:1 treble nm="Grand Piano"
V:2 bass 
V:3 bass 
V:1
 A2 A G2 F | B2 A [CEA]2 [B,EG] | [A,F]2 [CF] [DFG]2 [CEG] | A6 | A2 A B2 c | %5
w: J.~M.~Maunder * * *|||||
 [Dc]2 [DB] [DA]2 [DG] | F3 A2 [EG] | [CF]6 |] %8
w: |||
V:2
 [F,CF]2 [F,CF] [F,B,E]2 [F,A,] | [G,DF]2 [G,DF][K:bass] C,2 C, | D,2 A,, B,,2 C, | [F,CF]6 | %4
 [F,CF]2 [F,F] [F,G,E]2 [F,A,_E] | [B,,B,]2 [B,,B,] [B,,B,]2 [B,,B,] | [A,C]3 [CE]2 [C,B,] | %7
 [F,A,]6 |] %8
V:3
 x6 | x3[K:bass] x3 | x6 | x6 | x6 | x6 | C,6 | x6 |] %8

